styles/z-bolt/images/file.svg

<?xml version="1.0" encoding="UTF-8"?>
<svg width="68px" height="68px" viewBox="0 0 68 68" version="1.1" xmlns="http://www.w3.org/2000/svg" xmlns:xlink="http://www.w3.org/1999/xlink">
    <!-- Generator: Sketch 52.5 (67469) - http://www.bohemiancoding.com/sketch -->
    <title>file</title>
    <desc>Created with Sketch.</desc>
    <g id="Page-1" stroke="none" stroke-width="1" fill="none" fill-rule="evenodd">
        <g id="Artboard" transform="translate(-462.000000, -309.000000)">
            <g id="file" transform="translate(462.000000, 309.000000)">
                <path d="M40.0340909,4.38636364 L16.3272727,4.38636364 C14.6636364,4.38636364 13,5.91136364 13,7.575 L13,61.0886364 C13,62.7522727 14.6636364,64 16.3272727,64 L52.3034091,64 C53.9670455,64 55.2840909,62.7522727 55.2840909,61.0886364 L55.2840909,21.0227273" id="Path" stroke="#FFFFFF" stroke-width="3" stroke-linejoin="round"></path>
                <path d="M56.8090909,18.9431818 C58.4034091,18.9431818 58.8193182,18.1113636 57.6409091,16.9329545 L44.2625,3.62386364 C43.1534091,2.51477273 42.1136364,2.93068182 42.1136364,4.525 L42.1136364,16.1704545 C42.1136364,17.7647727 43.5693182,18.9431818 45.2329545,18.9431818 L56.8090909,18.9431818 Z" id="Path" stroke="#FFFFFF" stroke-width="3" stroke-linecap="round" stroke-linejoin="round"></path>
                <path d="M19.2386364,12.7045455 L35.875,12.7045455" id="Path" stroke="#FFFFFF" stroke-width="0.5" stroke-linecap="round" stroke-linejoin="round"></path>
                <path d="M18.5454545,24.4886364 L32.4090909,24.4886364" id="Path" stroke="#FFFFFF" stroke-width="0.5" stroke-linecap="round" stroke-linejoin="round"></path>
                <path d="M36.5681818,24.4886364 L49.7386364,24.4886364" id="Path" stroke="#FFFFFF" stroke-width="0.5" stroke-linecap="round" stroke-linejoin="round"></path>
                <path d="M18.5454545,28.6477273 L39.3409091,28.6477273" id="Path" stroke="#FFFFFF" stroke-width="0.5" stroke-linecap="round" stroke-linejoin="round"></path>
                <path d="M43.5,28.6477273 L49.7386364,28.6477273" id="Path" stroke="#FFFFFF" stroke-width="0.5" stroke-linecap="round" stroke-linejoin="round"></path>
                <path d="M18.5454545,32.8068182 L32.4090909,32.8068182" id="Path" stroke="#FFFFFF" stroke-width="0.5" stroke-linecap="round" stroke-linejoin="round"></path>
                <path d="M36.5681818,32.8068182 L49.7386364,32.8068182" id="Path" stroke="#FFFFFF" stroke-width="0.5" stroke-linecap="round" stroke-linejoin="round"></path>
                <path d="M18.5454545,36.9659091 L39.3409091,36.9659091" id="Path" stroke="#FFFFFF" stroke-width="0.5" stroke-linecap="round" stroke-linejoin="round"></path>
                <path d="M43.5,36.9659091 L49.7386364,36.9659091" id="Path" stroke="#FFFFFF" stroke-width="0.5" stroke-linecap="round" stroke-linejoin="round"></path>
                <g id="Group" transform="translate(19.238636, 41.125000)" fill="#FFFFFF">
                    <path d="M0,13.9329545 C0,13.3784091 0.138636364,12.9625 0.415909091,12.6852273 C0.693181818,12.4079545 1.10909091,12.2693182 1.73295455,12.2693182 C2.2875,12.2693182 2.70340909,12.4079545 2.98068182,12.6852273 C3.25795455,12.9625 3.39659091,13.3784091 3.39659091,13.9329545 C3.39659091,14.4875 3.25795455,14.8340909 2.91136364,15.1806818 C2.63409091,15.4579545 2.21818182,15.5965909 1.66363636,15.5965909 C1.10909091,15.5965909 0.693181818,15.4579545 0.346590909,15.1806818 C0.138636364,14.9034091 0,14.4875 0,13.9329545 Z" id="Path"></path>
                    <path d="M13.8636364,12.0613636 C13.8636364,13.1704545 13.4477273,14.0715909 12.6852273,14.6261364 C11.9227273,15.25 10.7443182,15.5272727 9.15,15.5272727 C8.31818182,15.5272727 7.69431818,15.4579545 7.07045455,15.3886364 C6.58522727,15.25 6.23863636,15.1113636 5.54545455,14.9034091 L5.54545455,12.4079545 C6.23863636,12.6852273 6.72386364,12.8931818 7.41704545,13.1011364 C8.11022727,13.3090909 8.73409091,13.3784091 9.28863636,13.3784091 C10.3977273,13.3784091 10.9522727,13.0318182 10.9522727,12.4079545 C10.9522727,12.2 10.8829545,11.9920455 10.7443182,11.8534091 C10.6056818,11.7147727 10.3284091,11.5068182 9.98181818,11.3681818 C9.63522727,11.1602273 9.15,10.9522727 8.59545455,10.7443182 C7.76363636,10.3977273 7.13977273,10.0511364 6.72386364,9.77386364 C6.30795455,9.49659091 6.03068182,9.15 5.82272727,8.73409091 C5.61477273,8.31818182 5.54545455,7.83295455 5.54545455,7.27840909 C5.54545455,6.30795455 5.89204545,5.54545455 6.65454545,4.99090909 C7.41704545,4.43636364 8.45681818,4.15909091 9.9125,4.15909091 C11.2295455,4.15909091 12.5465909,4.43636364 13.7943182,5.06022727 L12.8931818,7.20909091 C12.3386364,7.00113636 11.8534091,6.79318182 11.3681818,6.65454545 C10.8829545,6.51590909 10.3977273,6.44659091 9.9125,6.44659091 C9.01136364,6.44659091 8.59545455,6.65454545 8.59545455,7.13977273 C8.59545455,7.41704545 8.73409091,7.625 9.01136364,7.83295455 C9.28863636,8.04090909 9.9125,8.31818182 10.8829545,8.73409091 C11.7147727,9.08068182 12.4079545,9.42727273 12.7545455,9.70454545 C13.1704545,9.98181818 13.4477273,10.3284091 13.6556818,10.7443182 C13.7943182,11.0909091 13.8636364,11.5068182 13.8636364,12.0613636 Z" id="Path"></path>
                    <path d="M20.9340909,13.1704545 C21.4886364,13.1704545 22.1818182,13.0318182 22.875,12.8238636 L22.875,15.0420455 C22.1818182,15.3886364 21.1420455,15.5272727 20.0329545,15.5272727 C18.8545455,15.5272727 17.9534091,15.25 17.3988636,14.6261364 C16.8443182,14.0022727 16.5670455,13.1011364 16.5670455,11.9227273 L16.5670455,6.23863636 L15.1806818,6.23863636 L15.1806818,5.3375 L16.775,4.36704545 L17.6068182,2.07954545 L19.4090909,2.07954545 L19.4090909,4.15909091 L22.875,4.15909091 L22.875,6.23863636 L19.4090909,6.23863636 L19.4090909,11.9227273 C19.4090909,12.3386364 19.6170455,12.6852273 19.8943182,12.8931818 C20.1022727,13.0318182 20.5181818,13.1704545 20.9340909,13.1704545 Z" id="Path"></path>
                    <polygon id="Path" points="27.7272727 15.25 24.9545455 15.25 24.9545455 0 27.7272727 0"></polygon>
                </g>
            </g>
        </g>
    </g>
</svg>

<?xml version="1.0" encoding="utf-8"?>
<!-- Generator: Adobe Illustrator 15.0.2, SVG Export Plug-In . SVG Version: 6.00 Build 0)  -->
<!DOCTYPE svg PUBLIC "-//W3C//DTD SVG 1.1//EN" "http://www.w3.org/Graphics/SVG/1.1/DTD/svg11.dtd">
<svg version="1.1" id="Layer_1" xmlns="http://www.w3.org/2000/svg" xmlns:xlink="http://www.w3.org/1999/xlink" x="0px" y="0px"
	 width="68px" height="68px" viewBox="0 0 68 68" enable-background="new 0 0 68 68" xml:space="preserve">
<path id="Path" fill="none" stroke="#FFFFFF" stroke-width="3" stroke-linejoin="round" d="M40.034,4.386H16.327
	C14.664,4.386,13,5.911,13,7.575v53.514C13,62.752,14.664,64,16.327,64h35.976c1.664,0,2.981-1.248,2.981-2.911V21.023"/>
<path id="Path_1_" fill="none" stroke="#FFFFFF" stroke-width="3" stroke-linecap="round" stroke-linejoin="round" d="
	M53.776,20.328c1.595,0,2.011-0.832,0.832-2.01L41.23,5.009c-1.109-1.109-2.149-0.693-2.149,0.901v11.646
	c0,1.594,1.456,2.773,3.119,2.773H53.776z"/>
<path id="Path_2_" fill="none" stroke="#FFFFFF" stroke-width="0.5" stroke-linecap="round" stroke-linejoin="round" d="
	M19.239,12.705h16.636"/>
<path id="Path_3_" fill="none" stroke="#FFFFFF" stroke-width="0.5" stroke-linecap="round" stroke-linejoin="round" d="
	M18.545,24.489h13.864"/>
<path id="Path_4_" fill="none" stroke="#FFFFFF" stroke-width="0.5" stroke-linecap="round" stroke-linejoin="round" d="
	M36.568,24.489h13.17"/>
<path id="Path_5_" fill="none" stroke="#FFFFFF" stroke-width="0.5" stroke-linecap="round" stroke-linejoin="round" d="
	M18.545,28.648h20.795"/>
<path id="Path_6_" fill="none" stroke="#FFFFFF" stroke-width="0.5" stroke-linecap="round" stroke-linejoin="round" d="
	M43.5,28.648h6.238"/>
<path id="Path_7_" fill="none" stroke="#FFFFFF" stroke-width="0.5" stroke-linecap="round" stroke-linejoin="round" d="
	M18.545,32.807h13.864"/>
<path id="Path_8_" fill="none" stroke="#FFFFFF" stroke-width="0.5" stroke-linecap="round" stroke-linejoin="round" d="
	M36.568,32.807h13.17"/>
<path id="Path_9_" fill="none" stroke="#FFFFFF" stroke-width="0.5" stroke-linecap="round" stroke-linejoin="round" d="
	M18.545,36.966h20.795"/>
<path id="Path_10_" fill="none" stroke="#FFFFFF" stroke-width="0.5" stroke-linecap="round" stroke-linejoin="round" d="
	M43.5,36.966h6.238"/>
<g id="Group" transform="translate(19.238636, 41.125000)">
	<path id="Path_11_" fill="#FFFFFF" d="M0,13.934c0-0.555,0.139-0.971,0.416-1.248c0.277-0.277,0.693-0.416,1.317-0.416
		c0.555,0,0.97,0.139,1.248,0.416s0.416,0.693,0.416,1.248c0,0.554-0.139,0.9-0.485,1.247c-0.277,0.277-0.693,0.416-1.248,0.416
		s-0.971-0.139-1.317-0.416C0.139,14.903,0,14.487,0,13.934z"/>
	<path id="Path_12_" fill="#FFFFFF" d="M13.863,12.062c0,1.108-0.416,2.011-1.178,2.564c-0.763,0.624-1.941,0.901-3.535,0.901
		c-0.832,0-1.456-0.069-2.08-0.139c-0.485-0.139-0.832-0.277-1.525-0.485v-2.495c0.693,0.277,1.178,0.484,1.872,0.693
		c0.693,0.207,1.317,0.277,1.872,0.277c1.109,0,1.664-0.348,1.664-0.971c0-0.208-0.069-0.416-0.208-0.555s-0.416-0.347-0.763-0.485
		c-0.346-0.208-0.832-0.416-1.386-0.624c-0.832-0.346-1.456-0.693-1.872-0.971S6.031,9.15,5.823,8.734S5.546,7.833,5.546,7.278
		c0-0.97,0.347-1.733,1.109-2.288c0.763-0.554,1.802-0.831,3.258-0.831c1.317,0,2.634,0.277,3.881,0.901l-0.901,2.148
		c-0.555-0.208-1.04-0.416-1.525-0.555c-0.485-0.139-0.971-0.207-1.456-0.207c-0.901,0-1.317,0.207-1.317,0.692
		c0,0.277,0.139,0.485,0.416,0.693s0.901,0.485,1.872,0.901c0.832,0.346,1.525,0.693,1.872,0.971
		c0.416,0.277,0.693,0.623,0.901,1.039C13.794,11.091,13.863,11.507,13.863,12.062z"/>
	<path id="Path_13_" fill="#FFFFFF" d="M20.934,13.17c0.554,0,1.247-0.139,1.94-0.346v2.218c-0.693,0.347-1.732,0.485-2.842,0.485
		c-1.178,0-2.08-0.277-2.634-0.901c-0.555-0.624-0.832-1.524-0.832-2.703V6.238h-1.386v-0.9l1.594-0.971l0.832-2.287h1.803v2.079
		h3.465v2.079H19.41v5.685c0,0.416,0.207,0.763,0.484,0.97C20.102,13.031,20.518,13.17,20.934,13.17z"/>
	<polygon id="Path_14_" fill="#FFFFFF" points="27.727,15.25 24.955,15.25 24.955,0 27.727,0 	"/>
</g>
</svg>
